X:1
T:Behold, What Love!
T:James McGranahan (1840-1907)
T:Behold, What Love!
T:Public Domain
T:Public Domain
T:Public Domain
C:James McGranahan (1840-1907)
Z:Public Domain
%%score ( 1 2 ) ( 3 4 )
L:1/8
M:4/4
K:Db
V:1 treble 
V:2 treble 
V:3 bass 
V:4 bass 
V:1
 (DF) | [DA]2 [EA]2 [FA]2 [=Ed]2 | [FA]3 [EG] [DF]2 (DE) | [DF]2 ([FA][EG]) [DF]2 [CE]2 | %4
w: 1.~Be- *|what love, what bound-|less love, The Fa- *|hath be- * stowed On|
w: 2.~No *|er far from Him|but now By “pre- *|blood” made * nigh, Ac-|
w: 3.~What *|in glo- ry soon|shall be, It doth *|yet ap- * pear; But|
w: 4.~With *|a bless- èd hope|in view, We would *|ho- ly * be, More|
 D6 ([DF][FA]) | [GB]2 [GB]2 [GB]2 ([DG][GB]) | [Fd]2 [Fd]2 [Fd]2 (Ad) | %7
w: sin- ners *|that we should be *|Now called “the sons *|
w: cept- ed *|the “Well be- loved,” *|Near to God’s heart *|
w: when our *|cious Lord we see, *|We shall His im- *|
w: like our *|en, glor- ious Lord, *|Whose face we soon *|
 (ce)([Ae][=Gd]) [Ac]2 [EB]2 | [EA]6 ||[M:12/8]"^Refrain" [GA]3 | [Fd]6- [Fd]2 [Fd] [Fd][Ac][GB] | %11
w: God!” * * * * *||||
w: lie. * Be- * hold, what|ner|of|love! * what man- ner of|
w: bear. * * * * *||||
w: see. * * * * *||||
 [FA]6- [FA]2 [FA] [DB][DA][DG] | [DF]2 [DF] [CE]2 [DF] [EG]2 [FA] [GB]2 [Ac] | [GB]3 [FA]6 [FA]3 | %14
w: |||
w: love * the Fa- ther hath|be- stowed up- on us, That we, that|we should be|
w: |||
w: |||
 [Af]6- [Af]2 [Ae] [Bd][Ac][GB] | [FA]6- [FA]3 ([Fd][Ge])[Af] | [Ge]3 [Ge]3 [Fd]3 (EFG) | %17
w: |||
w: called, * should be called the|sons * of * God!||
w: |||
w: |||
 [Fd]6- [Fd]3 |] %18
w: |
w: |
w: |
w: |
V:2
 D2 | x8 | x6 D2 | x8 | D6 x2 | x8 | x6 F2 | E2 x6 | x6 ||[M:12/8] x3 | x12 | x12 | x12 | x12 | %14
w: hold,||ther||lost,||of||||||||
w: long-||cious||in||we|man-|||||||
w: we||not||pre-||age||||||||
w: such||more||ris-||shall||||||||
 x12 | x12 | x9 c3 | x9 |] %18
w: ||||
w: ||||
w: ||||
w: ||||
V:3
 [D,F,]2 | [D,F,]2 [D,G,]2 [D,A,]2 [D,=G,B,]2 | [D,A,]3 [D,A,] [D,A,]2 (F,G,) | %3
w: ~|~ ~ ~ ~|~ ~ ~ ~ *|
 [D,A,]2 [D,D]2 [A,,D]2 (A,G,) | [D,F,]6 (A,D) | [G,D]2 [G,D]2 [G,D]2 [G,B,]2 | %6
w: ~ ~ ~ ~ *|~ ~ *|~ ~ ~ ~|
 [D,A,]2 [D,A,]2 [D,A,]2 (DA,) | (A,C)(CB,) [E,A,]2 (=G,D) | [A,C]6 ||[M:12/8] A,3 | %10
w: ~ ~ ~ ~ *|~ * Be- * hold, what *|love!|be-|
 [D,A,]2 [D,A,] [D,A,][D,A,][D,A,] [D,A,]3 (A,2 D) | %11
w: what man- ner of love! ~ ~ *|
 [D,D]2 [D,D] [D,D][F,D][F,D] D2 D [G,D][G,C][G,B,] | %12
w: ~ ~ ~ ~ ~ ~ ~ ~ ~ ~|
 [D,A,]2 [D,A,] [A,,A,]2 [A,,A,] [A,,A,]2 [A,,D] [A,,D]2 [A,,D] | [D,D]3 [D,D]6 [D,D]3 | %14
w: we should be called, we should be called,|the sons of|
 [D,D]3 [D,D]2 [D,D] [D,D]3 [G,D][G,D][G,D] | [D,D]2 [D,D] [F,D]2 [A,D] D3 [D,A,]2 [D,D] | %16
w: God! * * * * * *||
 [G,B,]3 [E,B,]3 A,3 [A,,A,]3 | [D,A,]6- [D,A,]3 |] %18
w: ||
V:4
 x2 | x8 | x6 D,2 | x6 A,,2 | x6 D,2 | x8 | x6 D,2 | E,2 E,2 x E,2 x | x6 ||[M:12/8] A,3 | x9 D,3 | %11
w: ||~|~|~||~|man- ner of||hold,|~|
 x6 D2 D x3 | x12 | x12 | x12 | x6 D3 x3 | x6 A,3 x3 | x9 |] %18
w: ~ ~|||||||

